!!!!SEGMENT: pl-kk--kk-i-59--004_anonim--missa-a-3-benedictus.krn
!!!cenid: 17xx:2248
!!!COM: Anonim
!!!COM-rismID: pe30004985
!!!CDT:
!!!CNT:
!!!OPR: Missa a 3
!!!OTL: Benedictus
!!!OMV: 004
!!!PDT:
!!!AGN: Sacred; Mass
!!!SMS-siglum: PL-Kk
!!!SMS-shelfmark: Kk.I.59
!!!SMS-shelfwork: 001-004 M
!!!SMS-variant: Baſso PL-Kk KK.I.59:0008
!!!SMS-altvar: Baſso PL-Kk KK.I.59:0011
!!!NIFC-rismSourceID: 1001156799
!!!NIFC-islandoraID: pl-kk:15681
!!!URL-pdf-islandora: https://repozytorium.nifc.pl/islandora/object/pl-kk%3A15681/datastream/PDF/view
!!!URL-scan:
!!!ONB-nifc: UWAGA: części Mszy: 1. Kyrie, 2. Et in terra, 3. Sanctus, 4. Benedictus, 5. Agnus Dei.
!!!AIN: 1 empty 2 tenor
!!!key:
**kern	**text	**kern	**text	**kern	**text
*part3	*part3	*part2	*part2	*part1	*part1
*staff3	*staff3	*staff2	*staff2	*staff1	*staff1
*Iempty	*	*Itenor	*	*Itenor	*
*I"Baſso	*	*I"Tenore Secondo	*	*I"Tenore Primo	*
*I'B	*	*I'T 2	*	*I'T 1	*
*clefF4	*	*clefC4	*	*clefC4	*
*ok[e-b-]	*	*	*	*	*
*k[b-e-]	*	*k[b-e-]	*	*k[b-e-]	*
*g:	*	*g:	*	*g:	*
*M2/1	*	*M2/1	*	*M2/1	*
*met(C|)	*	*met(C|)	*	*met(C|)	*
=1-	=1-	=1-	=1-	=1-	=1-
!LO:TX:a:t=5	!	!LO:TX:a:t=2	!	!	!
!	!	!LO:TX:t=P:problem=kreska pseudotaktowa	!	!LO:TX:t=P::problem=kreska pseudotaktowa&colon;między nutą a kropką	!
00r	.	0r	.	1.A	Be-
.	.	.	.	.	.
*	*	*	*	*2\right	*
!	!	!	!	!LO:TX:t=P:problem=kreska pseudotaktowa	!
.	.	.	.	2B-\	-ne-
=2-	=2-	=2-	=2-	=2-	=2-
!	!	!	!	!LO:TX:t=P:problem=kreska pseudotaktowa	!
.	.	2r	.	1A	-di-
!	!	!LO:TX:t=P:problem=przekreślona synkopowana wartość	!	!	!
.	.	1A	Be-	.	.
.	.	.	.	2D/	-ctus
*	*	*2\right	*	*	*
!	!	!LO:TX:t=P:problem=kreska pseudotaktowa	!	!LO:TX:t=P:problem=kreska pseudotaktowa	!
.	.	2B-\	-ne-	2d\	qui
=3-	=3-	=3-	=3-	=3-	=3-
!LO:TX:t=P:problem=kreska pseudotaktowa	!	!LO:TX:t=P:problem=kreska pseudotaktowa	!	!	!
1r	.	1A	-di-	4c\	ve-
.	.	.	.	4B-\	.
.	.	.	.	4A/	.
!	!	!	!	!LO:TX:t=P:problem=kreska pseudotaktowa	!
.	.	.	.	4G/	.
2r	.	2D/	-ctus	4A/	.
.	.	.	.	4F/	.
*2\right	*	*	*	*	*
!LO:TX:t=P:problem=kreska pseudotaktowa	!	!LO:TX:t=P:problem=kreska pseudotaktowa	!	!LO:TX:t=P::problem=kreska pseudotaktowa&colon;między nutą a kropką	!
2D\	in	2d\	qui	2.B-\	.
=4-	=4-	=4-	=4-	=4-	=4-
!	!	!LO:TX:t=P:problem=kreska pseudotaktowa	!	!	!
2En\	no-	1c	ve-	.	.
.	.	.	.	8A/L	.
.	.	.	.	8G/J	.
!LO:TX:t=P:problem=kreska pseudotaktowa	!	!	!	!LO:TX:t=P:problem=kreska pseudotaktowa	!
2F#X\	-mi-	.	.	2A\	.
!	!	!LO:TX:t=P:problem=kreska pseudotaktowa	!	!LO:TX:b:t=Volti Sub.	!
!	!	!	!	!LO:TX:t=P:problem=kreska pseudotaktowa	!
2G\	-ne	1B-	-nit	1B-	-nit
4GG/	Do-	.	.	.	.
!LO:TX:t=P:problem=kreska pseudotaktowa	!	!	!	!	!
4AA/	.	.	.	.	.
=5-	=5-	=5-	=5-	=5-	=5-
!	!	!LO:TX:t=P::problem=kreska pseudotaktowa&colon;między nutą a kropką	!LO:PB:g=original	!LO:PB:g=original	!
4BB-/	.	1.d	Be-	2r	.
4C/	.	.	.	.	.
!	!	!	!	!LO:TX:t=P:problem=przekreślona synkopowana wartość	!
4D\	.	.	.	1A	Be-
!LO:TX:t=P:problem=kreska pseudotaktowa	!	!	!	!	!
4En\	.	.	.	.	.
4F\	.	.	.	.	.
4D\	.	.	.	.	.
!	!	!LO:TX:t=P:problem=kreska pseudotaktowa	!	!LO:TX:t=P:problem=przekreślona synkopowana wartość	!
1G\	.	2e-\	ne-	1B-\	-ne-
=6-	=6-	=6-	=6-	=6-	=6-
!	!	!LO:TX:t=P::problem=kreska pseudotaktowa&colon;między nutą a kropką	!	!	!
.	.	1.d	-di-	.	.
!LO:TX:t=P:problem=kreska pseudotaktowa	!	!	!	!LO:TX:t=P:problem=kreska pseudotaktowa	!
2F#X\	-mi-	.	.	2A\	-di-
!LO:TX:t=P:problem=kreska pseudotaktowa	!	!	!	!	!
1G	-ni	.	.	2G/	-ctus
!	!	!LO:TX:t=P:problem=przekreślona synkopowana wartość	!	!LO:TX:t=P:problem=kreska pseudotaktowa	!
.	.	1G/	-ctus	2d\	qui
=7-	=7-	=7-	=7-	=7-	=7-
2r	.	.	.	4d\	ve-
.	.	.	.	4c\	.
!LO:TX:t=P:problem=przekreślona synkopowana wartość	!	!LO:TX:t=P:problem=kreska pseudotaktowa	!	!	!
1D	Be-	2d\	qui	4B-\	.
!	!	!	!	!LO:TX:t=P:problem=kreska pseudotaktowa	!
.	.	.	.	4A\	.
.	.	4d\	ve-	4B-\	.
.	.	4c\	.	4A\	.
!LO:TX:t=P:problem=kreska pseudotaktowa	!	!LO:LB:g=original	!	!LO:TX:t=P::problem=kreska pseudotaktowa&colon;między nutą a kropką	!
2E-X\	-ne-	4B-\	.	2.G/	.
.	.	8A\L	.	.	.
!	!	!LO:TX:t=P:problem=kreska pseudotaktowa	!	!	!
.	.	8G\J	.	.	.
=8-	=8-	=8-	=8-	=8-	=8-
!LO:LB:g=original	!	!	!	!	!
!LO:TX:t=P:problem=kreska pseudotaktowa	!	!LO:TX:t=P:problem=kreska pseudotaktowa	!	!	!
1D	-di-	1A	.	.	.
.	.	.	.	8F#X/L	.
!	!	!	!	!LO:SIC:v:s=8En/J	!
.	.	.	.	8E-/J	.
!	!	!	!	!LO:TX:t=P:problem=kreska pseudotaktowa	!
.	.	.	.	2F#/	.
!	!	!LO:TX:t=P:problem=kreska pseudotaktowa	!	!LO:TX:t=P:problem=kreska pseudotaktowa	!
2GG/	-ctus	1G	-nit	1G	nit
!LO:TX:t=P:problem=kreska pseudotaktowa	!	!	!	!	!
2G\	qui	.	.	.	.
=9-	=9-	=9-	=9-	=9-	=9-
!	!	!LO:TX:a:t=1	!	!	!
!	!	!LO:TX:t=P:problem=kreska pseudotaktowa	!	!	!
4F\	ve-	1r	.	2A\	Be-
4En\	.	.	.	.	.
!	!	!	!	!LO:TX:t=P:problem=przekreślona synkopowana wartość	!
4D\	.	.	.	1B-	-ne-
!LO:TX:t=P:problem=kreska pseudotaktowa	!	!	!	!	!
4C/	.	.	.	.	.
4D\	.	2r	.	.	.
4En\	.	.	.	.	.
!	!	!LO:TX:t=P:problem=kreska pseudotaktowa	!	!LO:TX:t=P:problem=kreska pseudotaktowa	!
4F\	.	2d\	in	2A\	-di-
!LO:TX:t=P:problem=kreska pseudotaktowa	!	!	!	!	!
4D\	.	.	.	.	.
=10-	=10-	=10-	=10-	=10-	=10-
!	!	!	!	!LO:TX:t=P:problem=kreska pseudotaktowa	!
4En\	.	2c\	no-	1G	-ctus
4F#X\	.	.	.	.	.
!	!	!LO:TX:t=P:problem=kreska pseudotaktowa	!	!	!
1G	.	2B-\	-mi-	.	.
!	!	!LO:TX:t=P:problem=kreska pseudotaktowa	!	!LO:LB:g=original	!
.	.	1A	-ne	2r	.
!LO:TX:t=P:problem=kreska pseudotaktowa	!	!	!	!LO:TX:t=P:problem=kreska pseudotaktowa	!
2F#X\	.	.	.	2d\	qui
=11-	=11-	=11-	=11-	=11-	=11-
!	!	!LO:TX:a:t=1	!	!	!
!	!	!LO:TX:t=P:problem=kreska pseudotaktowa	!	!	!
2G\	nit	1r	.	4d\	ve-
.	.	.	.	4c\	.
4r	.	.	.	4B-\	.
!LO:TX:t=P:problem=kreska pseudotaktowa	!	!	!	!	!
4G\	in	.	.	8A/L	.
!	!	!	!	!LO:TX:t=P:problem=kreska pseudotaktowa	!
.	.	.	.	8G/J	.
2Fny\	no-	2r	.	2A\	.
!LO:TX:t=P:problem=kreska pseudotaktowa	!	!LO:TX:t=P:problem=kreska pseudotaktowa	!	!LO:TX:t=P:problem=kreska pseudotaktowa	!
2E-X\	-mi-	2G/	in	2G/	.
=12-	=12-	=12-	=12-	=12-	=12-
!	!	!	!	!LO:TX:t=P:problem=kreska pseudotaktowa	!
2.D\	-ne	2A\	no-	1F#X	-nit
!	!	!LO:TX:t=P:problem=kreska pseudotaktowa	!	!	!
.	.	2Bn\	-mi-	.	.
!LO:TX:t=P:problem=kreska pseudotaktowa	!	!	!	!	!
4D\	in	.	.	.	.
2C/	no-	2c\	-ne	2r	.
!LO:TX:t=P:problem=kreska pseudotaktowa	!	!LO:TX:t=P:problem=kreska pseudotaktowa	!	!LO:TX:t=P:problem=przekreślona synkopowana wartość	!
2BB-/	-mi-	2G/	Do-	1d\	in
=13-	=13-	=13-	=13-	=13-	=13-
!LO:LB:g=original	!	!	!	!	!
!LO:TX:t=P:problem=kreska pseudotaktowa	!	!	!	!	!
1AA	-ne	2F/	.	.	.
!	!	!LO:TX:t=P:problem=kreska pseudotaktowa	!	!LO:TX:t=P:problem=przekreślona synkopowana wartość	!
.	.	2En/	.	1c	no-
!	!	!LO:LB:g=original	!	!	!
2.D\	Do-	2D/	.	.	.
!	!	!LO:TX:t=P::problem=kreska pseudotaktowa&colon;między nutą a kropką	!	!LO:TX:t=P:problem=kreska pseudotaktowa	!
.	.	2.d\	.	2B-\	-mi-
!LO:TX:t=P:problem=kreska pseudotaktowa	!	!	!	!	!
4En\	.	.	.	.	.
=14-	=14-	=14-	=14-	=14-	=14-
4F#X\	.	.	.	2A\	-ne
!LO:SIC:v:s=8En\L	!	!	!	!	!
8E-y\L	.	4c\	.	.	.
8F#\J	.	.	.	.	.
!	!	!	!	!LO:TX:t=P::problem=kreska pseudotaktowa&colon;między nutą a kropką	!
1G	.	4B-y\	.	2.d\	Do-
!	!	!LO:TX:t=P:problem=kreska pseudotaktowa	!	!	!
.	.	4A\	.	.	.
.	.	4B-\	.	.	.
.	.	4A\	.	4c\	.
!LO:TX:t=P:problem=kreska pseudotaktowa	!	!LO:TX:t=P:problem=przekreślona synkopowana wartość	!	!	!
2G\	-mi-	1G/	.	4B-\	.
.	.	.	.	8A/L	.
!	!	!	!	!LO:TX:t=P:problem=kreska pseudotaktowa	!
.	.	.	.	8G/J	.
=15-	=15-	=15-	=15-	=15-	=15-
!LO:TX:t=P:problem=kreska pseudotaktowa	!	!	!	!	!
1D	-ni	.	.	2A\	.
!	!	!LO:TX:t=P:problem=kreska pseudotaktowa	!	!LO:TX:t=P:problem=kreska pseudotaktowa	!
.	.	2F#X/	-mi-	2A\	mi-
2r	.	2G/	-ni	2G/	-nie
!	!	!	!	!LO:TX:t=P:problem=przekreślona synkopowana wartość	!
!LO:TX:t=P:problem=kreska pseudotaktowa	!	!LO:TX:t=P:problem=przekreślona synkopowana wartość	!	!LO:LB:g=original	!
2G\	O-	1B-\	O-	1d\	O-
=16-	=16-	=16-	=16-	=16-	=16-
!LO:TX:t=P:problem=kreska pseudotaktowa	!	!	!	!	!
1Fny	-san-	.	.	.	.
!	!	!LO:TX:t=P:problem=przekreślona synkopowana wartość	!	!LO:TX:t=P:problem=przekreślona synkopowana wartość	!
.	.	1A	-san-	1c	-san-
2E-X\	-na	.	.	.	.
!	!	!LO:TX:t=P:problem=kreska pseudotaktowa	!	!LO:TX:t=P:problem=kreska pseudotaktowa	!
1E-\	in	2G/	-na	2B-\	-na
=17-	=17-	=17-	=17-	=17-	=17-
.	.	2G/	in	2e-\	in
!LO:TX:t=P:problem=kreska pseudotaktowa	!	!LO:TX:t=P:problem=kreska pseudotaktowa	!	!LO:TX:t=P:problem=przekreślona synkopowana wartość	!
2BB-/	ex-	2Fny/	ex-	1d	ex-
2.C/	-cel-	4En/	-cel-	.	.
.	.	4F/	.	.	.
!	!	!	!	!LO:TX:t=P:problem=przekreślona synkopowana wartość	!
.	.	4G/	.	1c\	.
!	!	!LO:TX:t=P:problem=kreska pseudotaktowa	!	!	!
8BB-/L	.	4E/	.	.	.
!LO:TX:t=P:problem=kreska pseudotaktowa	!	!	!	!	!
8C/J	.	.	.	.	.
=18-	=18-	=18-	=18-	=18-	=18-
!LO:TX:t=P:problem=kreska pseudotaktowa	!	!	!	!	!
0D	.	2F#X/	.	.	.
!	!	!LO:TX:t=P:problem=przekreślona synkopowana wartość	!	!LO:TX:t=P:problem=kreska pseudotaktowa	!
.	.	1G	.	2B-\	.
!	!	!	!	!LO:TX:t=P:problem=kreska pseudotaktowa	!
.	.	.	.	1A	-cel-
!	!	!LO:TX:t=P:problem=kreska pseudotaktowa	!	!	!
.	.	2F#/	.	.	.
=19-	=19-	=19-	=19-	=19-	=19-
!	!	!LO:TX:b:i:t=Sieq(ue) Agnus	!	!	!
1GG;	-sis	1G	-sis	1Bn	-sis
=-	=-	=-	=-	=-	=-
*-	*-	*-	*-	*-	*-
!!!system-decoration: [(s1,s2,s3)]
!!!RDF**kern: < = below
!!!RDF**kern: > = above
!!!ENC: Marta Chmielewska
!!!END: 2021-08-03
!!!ENC: Marcin Jachim
!!!END: 2021-07-06
!!!YEC: Copyright 2022 Narodowy Instytut Fryderyka Chopina (https://polishscores.org)
!!!YEM: Licence CC BY 4.0 (https://creativecommons.org/licenses/by/4.0)
